X: 3574
T: Big Tony
R: jig
M: 6/8
K: Dmajor
|:~F2B AFE|Fdc d2 z|~F2 B AFE|fed BAG|
~F2 B AFE|Fdc dcA|BFF GFE|DEF AFE:|
|:DEF ABd|AFB AGF||DEF A2 d|AFD ~B3|
DEF Adc|~B3 d2 c|BFF AFE|DEF AFE:|

